src/pos-icons/file-star-outline.svg

<svg height="24" viewBox="0 0 24 24" width="24" xmlns="http://www.w3.org/2000/svg"><path d="m14 2h-8c-1.1 0-2 .9-2 2v16c0 1.1.9 2 2 2h12c1.1 0 2-.9 2-2v-12zm4 18h-12v-16h7v5h5zm-8.5-2 .7-2.8-2.2-1.9 2.9-.2 1.1-2.7 1.1 2.6 2.9.2-2.2 1.9.7 2.8-2.5-1.4z"/></svg>

<?xml version="1.0" encoding="UTF-8"?><!DOCTYPE svg PUBLIC "-//W3C//DTD SVG 1.1//EN" "http://www.w3.org/Graphics/SVG/1.1/DTD/svg11.dtd"><svg xmlns="http://www.w3.org/2000/svg" xmlns:xlink="http://www.w3.org/1999/xlink" version="1.1" id="mdi-file-star-outline" width="24" height="24" viewBox="0 0 24 24"><path d="M14 2H6C4.9 2 4 2.9 4 4V20C4 21.1 4.9 22 6 22H18C19.1 22 20 21.1 20 20V8L14 2M18 20H6V4H13V9H18V20M9.5 18L10.2 15.2L8 13.3L10.9 13.1L12 10.4L13.1 13L16 13.2L13.8 15.1L14.5 17.9L12 16.5L9.5 18Z" /></svg>
